icon/lg/reasonml-icon.svg

<?xml version="1.0" encoding="UTF-8"?>
<svg viewBox="0 0 256 256" version="1.1" xmlns="http://www.w3.org/2000/svg" xmlns:xlink="http://www.w3.org/1999/xlink" preserveAspectRatio="xMidYMid" height="1em" width="1em">
  <g>
    <rect fill="#DD4B39" x="0" y="0" width="256" height="256"/>
    <path d="M151.32996,232.673587 L122.480793,232.673587 L108.265264,205.636213 L89.3112253,205.636213 L89.3112253,232.673587 L63.8068933,232.673587 L63.8068933,134.976667 L107.707792,134.976667 C133.630227,134.976667 148.403227,147.519773 148.403227,169.261173 C148.403227,184.034173 142.27104,194.90488 130.982237,200.758333 L151.32996,232.673587 Z M89.3112253,155.324387 L89.3112253,185.288493 L107.84716,185.288493 C118.160388,185.288493 124.153209,179.992507 124.153209,170.097387 C124.153209,160.481 118.160388,155.324387 107.84716,155.324387 L89.3112253,155.324387 Z M164.70928,134.976667 L241.779747,134.976667 L241.779747,155.324387 L190.213613,155.324387 L190.213613,173.581587 L236.762493,173.581587 L236.762493,193.789933 L190.213613,193.929307 L190.213613,212.325867 L243.173427,212.325867 L243.173427,232.673587 L164.70928,232.673587 L164.70928,134.976667 Z" fill="#FFFFFF"/>
  </g>
</svg>

<svg width="256" height="256" xmlns="http://www.w3.org/2000/svg" preserveAspectRatio="xMidYMid"><path fill="#DD4B39" d="M0 0h256v256H0z"/><path d="M151.33 232.674h-28.85l-14.215-27.038H89.311v27.038H63.807v-97.697h43.9c25.923 0 40.696 12.543 40.696 34.284 0 14.773-6.132 25.644-17.42 31.497l20.347 31.916Zm-62.019-77.35v29.964h18.536c10.313 0 16.306-5.295 16.306-15.19 0-9.617-5.993-14.774-16.306-14.774H89.311Zm75.398-20.347h77.07v20.347h-51.565v18.258h46.548v20.208l-46.548.14v18.396h52.96v20.348h-78.465v-97.697Z" fill="#FFF"/></svg>
